X:1
T:Title
L:1/8
Q:1/4=110
M:4/4
K:F
V:1 treble nm="Church Organ, Staff"
V:1
 c2 z z/ c/ c4 | c3 c/c/- c3 z/ c/- | c>c- c z/ c/- c z/ c/- c z/ d/- | d3 z/ d/- d3 z/ e/- | %4
w: By~Myles~B.~Foster * *||||
 e6- e z/ e/- | e2 z/ e/e- e2- e/ z/ e- | e2 d<c- c2 z/ c3/2- | c>c c2 ed c2- | c2 =B4 c2- | %9
w: |||||
[M:6/8] c2 c- c/ z/ z z | F2 G A2 B | c2 d BAG | F2 D F2 D | FGA A2 G | F2 G A2 B | c2 d BAG | %16
w: |||||||
 A2 E FGA | G2 F .F3 | c2 d cBA | f2 c AGF | A3 G3 | .F6 |] %22
w: ||||||

